public/mouth-shapes/mouth-D.svg

<?xml version="1.0" encoding="UTF-8" standalone="no"?>
<svg
   xmlns:dc="http://purl.org/dc/elements/1.1/"
   xmlns:cc="http://creativecommons.org/ns#"
   xmlns:rdf="http://www.w3.org/1999/02/22-rdf-syntax-ns#"
   xmlns:svg="http://www.w3.org/2000/svg"
   xmlns="http://www.w3.org/2000/svg"
   xmlns:sodipodi="http://sodipodi.sourceforge.net/DTD/sodipodi-0.dtd"
   xmlns:inkscape="http://www.inkscape.org/namespaces/inkscape"
   inkscape:version="1.0beta1 (32d4812, 2019-09-19)"
   sodipodi:docname="mouth-D.svg"
   stroke-linejoin="round"
   stroke-linecap="round"
   fill="none"
   stroke="black"
   xml:space="preserve"
   enable-background="new 0 0 1562.774414 1562.774414"
   viewBox="6e-06 -1.5e-05 1024 451.83909"
   height="768"
   width="1024"
   y="0px"
   x="0px"
   id="Contours"
   version="1.1">
  <metadata
     id="metadata166">
    <rdf:RDF>
      <cc:Work
         rdf:about="">
        <dc:format>image/svg+xml</dc:format>
        <dc:type
           rdf:resource="http://purl.org/dc/dcmitype/StillImage" />
      </cc:Work>
    </rdf:RDF>
  </metadata>
  <defs
     id="defs164" />
  <sodipodi:namedview
     inkscape:current-layer="Contours"
     inkscape:window-maximized="1"
     inkscape:window-y="23"
     inkscape:window-x="0"
     inkscape:cy="602.32878"
     inkscape:cx="-1955.6897"
     inkscape:zoom="0.17404943"
     showgrid="false"
     id="namedview162"
     inkscape:window-height="755"
     inkscape:window-width="1280"
     inkscape:pageshadow="2"
     inkscape:pageopacity="0"
     guidetolerance="10"
     gridtolerance="10"
     objecttolerance="10"
     borderopacity="1"
     inkscape:document-rotation="0"
     bordercolor="#666666"
     pagecolor="#ffffff" />
  <g
     transform="matrix(0.4967704,0,0,0.4967704,121.30649,-9.72141)"
     id="g1222"
     style="opacity:1;stop-opacity:1">
    <path
       inkscape:connector-curvature="0"
       class="selected"
       fill="#000000"
       opacity="1.000000"
       stroke="none"
       d="m 1557.4054,253.01485 c -3.7675,1.38672 -8.0846,-0.82533 -10.4549,-4.06563 -2.3702,-3.2403 -3.2691,-7.28988 -4.2407,-11.18519 -12.7385,-51.07225 -46.4003,-93.96224 -79.2481,-135.09207 -1.56,-1.95329 -0.021,-5.117546 2.3161,-6.003782 2.3374,-0.886236 4.9606,-0.160849 7.2802,0.77093 14.6443,5.882562 24.7674,19.195192 33.9385,32.038532 23.411,32.78499 45.9929,67.43309 55.0019,106.69842 1.4279,6.22352 1.3992,14.63323 -4.593,16.83879 z"
       id="path157" />
    <path
       inkscape:connector-curvature="0"
       class="selected"
       fill="#000000"
       opacity="1.000000"
       stroke="none"
       d="m 717.82753,6.150387 c 129.89814,14.464629 261.31719,5.541168 391.68397,14.882035 130.3668,9.340866 264.4592,39.360236 366.8278,120.621698 15.2573,12.11149 30.3642,26.32803 35.5861,45.09519 3.4261,12.31283 2.2276,25.38506 0.8082,38.08656 -10.1147,90.51065 -30.1231,179.91224 -59.554,266.09985 -13.1644,38.55165 -28.2651,76.58297 -48.069,112.18269 -54.9596,98.79625 -144.9582,175.4864 -246.2433,225.71174 -101.2851,50.22535 -213.58894,75.24961 -326.14472,85.85397 -64.82898,6.10781 -130.53509,7.54382 -194.77354,-3.11093 C 514.95311,891.17277 403.01362,827.38513 304.11114,751.47416 272.67547,727.34624 241.93429,701.55576 218.39464,669.67719 197.93258,641.96645 183.4503,610.3892 169.11632,579.0664 111.77302,453.75908 53.937928,326.94137 28.057513,191.58857 18.445564,211.24811 14.128171,233.46568 15.678019,255.29422 7.216473,260.17797 0.066792,246.8055 0.002992,237.03591 -0.281859,193.41376 19.790977,150.08007 53.248655,122.08798 55.1523,139.29038 49.184654,157.20817 37.346576,169.8338 236.06798,38.781424 481.24582,-20.193842 717.82753,6.150387 M 1489.5072,253.87273 c 14.1746,-21.93689 9.5943,-52.12379 -4.9636,-73.80824 -14.5579,-21.68445 -37.2897,-36.40327 -60.2232,-48.90149 C 1270.368,47.262418 1087.8593,39.329602 912.63292,33.299866 855.38153,31.329781 798.13015,29.359697 740.87877,27.389612 613.37633,23.002109 484.22464,18.758447 359.73657,46.666194 253.79001,70.417303 153.78161,117.10678 62.985394,176.6453 c -4.287159,2.81125 -8.710583,5.81416 -11.238339,10.27435 -3.208851,5.66197 -2.790515,12.59585 -2.279771,19.08382 1.474255,18.72724 3.073407,37.93851 11.14175,54.90272 8.068344,16.96422 24.151757,31.44729 42.928086,32.0238 66.68178,2.04738 133.03384,9.89243 199.28509,17.72977 152.97242,18.0962 305.94484,36.19242 458.91726,54.28863 28.57733,3.38061 57.47449,0.046 86.05738,-3.28723 80.68463,-9.40901 161.36925,-18.81802 242.05385,-28.22702 135.2686,-15.77429 272.0795,-31.91136 399.6565,-79.56141 M 671.21475,899.38781 c 25.03699,2.63278 50.24479,3.29604 75.41965,3.2013 115.25698,-0.43374 231.31741,-17.04049 338.8087,-58.63343 107.4914,-41.59294 206.2504,-109.03177 276.4713,-200.42863 -44.4806,-43.82204 -113.2673,-48.43659 -175.6912,-49.8992 -249.84337,-5.85383 -499.86561,-2.71316 -749.5692,7.48835 -54.36143,2.2209 -109.22047,4.85326 -161.74659,19.0344 -13.37351,3.61062 -27.2553,8.41567 -36.2641,18.93845 -9.00881,10.52278 -10.75473,28.41307 -0.1809,37.3619 125.78885,106.45748 268.86508,205.70322 432.75234,222.93686 M 623.56328,404.67508 c 83.11945,-4.96755 166.2389,-9.9351 249.35835,-14.90265 70.99773,-4.24311 146.66777,-7.45284 208.29087,28.06169 59.3756,34.21932 94.7131,98.54717 118.6773,162.7511 60.2841,-3.02966 121.3967,13.5011 171.9332,46.50737 59.2626,-112.482 99.3489,-235.03639 118.0131,-360.79768 -171.7381,74.02339 -365.6206,68.51563 -550.33575,97.73458 -43.13068,6.82257 -86.16464,15.61152 -129.81798,16.70206 -35.63488,0.89023 -71.1752,-3.36708 -106.56696,-7.61685 C 494.15875,348.02364 285.2021,322.93257 76.245444,297.84151 111.09402,417.18934 161.91469,531.86267 226.92649,637.84283 c 30.11587,-25.86769 68.77267,-41.61899 108.39108,-44.16559 17.16826,-48.01291 39.11549,-96.45483 77.8452,-129.62105 56.39814,-48.2966 136.28109,-54.95144 210.40051,-59.38111 m 551.01082,173.42444 c -13.4579,-57.96695 -46.5446,-113.30313 -97.8482,-143.45657 -51.8851,-30.49523 -115.23435,-32.25884 -175.41199,-31.43943 -109.60483,1.49244 -219.13012,8.80876 -327.95962,21.9078 -46.39429,5.58415 -94.31203,12.80924 -133.60899,38.09484 -45.67301,29.38828 -73.97322,79.90665 -89.97274,131.80762 263.25326,-16.5037 527.21742,-21.66389 790.91454,-15.46146 8.8656,0.20853 18.0327,0.49862 26.0437,4.3022 2.0342,-2.57591 4.7757,-4.58749 7.8433,-5.755 m 53.8793,-528.608154 c 9.7837,3.112638 19.8303,5.398642 29.9975,6.825669 0.5747,0.08066 1.324,0.06313 1.5326,-0.478362 0.1667,-0.43249 -0.2809,-0.963212 -0.7353,-0.871929 -7.8262,-1.924141 -15.6523,-3.848282 -23.4785,-5.772422 -2.448,-0.601854 -5.2489,-1.145391 -7.3163,0.297041 m -4.8013,-0.982205 c 0.7745,-1.397558 -1.8687,-2.8971 -2.6711,-1.515355 -0.088,1.12539 1.4958,1.947224 2.3656,1.227644 z"
       id="path159" />
  </g>
</svg>

<?xml version="1.0" encoding="utf-8"?><!DOCTYPE svg PUBLIC "-//W3C//DTD SVG 1.1//EN" "http://www.w3.org/Graphics/SVG/1.1/DTD/svg11.dtd"><svg version="1.1" id="Contours" xmlns="http://www.w3.org/2000/svg" xmlns:xlink="http://www.w3.org/1999/xlink" x="0px" y="0px" width="1562.774414px" height="1562.774414px" viewBox="0.000006 -0.000015 1562.774414 919.430420" enable-background="new 0 0 1562.774414 1562.774414" xml:space="preserve" stroke="black" fill="none" stroke-linecap='round' stroke-linejoin='round'><path class="selected"  fill="#000000" opacity="1.000000" stroke="none" 
 	d="
M1557.405421 253.014848 C1553.637871 254.401570 1549.320758 252.189523 1546.950548 248.949223 C1544.580339 245.708924 1543.681405 241.659344 1542.709828 237.764030 C1529.971301 186.691783 1496.309519 143.801788 1463.461669 102.671957 C1461.901700 100.718671 1463.440444 97.554414 1465.777839 96.668178 C1468.115234 95.781942 1470.738376 96.507329 1473.057992 97.439108 C1487.702321 103.321674 1497.825398 116.634297 1506.996515 129.477643 C1530.407470 162.262630 1552.989446 196.910726 1561.998415 236.176062 C1563.426328 242.399583 1563.397640 250.809291 1557.405422 253.014847 z"/><path class="selected"  fill="#000000" opacity="1.000000" stroke="none" 
 	d="
M717.827532 6.150387 C847.725671 20.615016 979.144717 11.691555 1109.511507 21.032422 C1239.878298 30.373288 1373.970687 60.392658 1476.339270 141.654118 C1491.596640 153.765610 1506.703476 167.982150 1511.925440 186.749314 C1515.351460 199.062138 1514.153008 212.134366 1512.733596 224.835873 C1502.618903 315.346524 1482.610538 404.748115 1453.179589 490.935724 C1440.015151 529.487368 1424.914461 567.518694 1405.110616 603.118405 C1350.151021 701.914661 1260.152409 778.604807 1158.867307 828.830151 C1057.582204 879.055496 945.278361 904.079762 832.722576 914.684118 C767.893601 920.791931 702.187485 922.227945 637.949042 911.573193 C514.953111 891.172774 403.013623 827.385131 304.111138 751.474165 C272.675467 727.346236 241.934291 701.555761 218.394640 669.677192 C197.932583 641.966453 183.450302 610.389198 169.116319 579.066399 C111.773015 453.759083 53.937928 326.941372 28.057513 191.588567 C18.445564 211.248107 14.128171 233.465680 15.678019 255.294218 C7.216473 260.177972 0.066792 246.805497 0.002992 237.035914 C-0.281859 193.413761 19.790977 150.080067 53.248655 122.087977 C55.152300 139.290381 49.184654 157.208173 37.346576 169.833801 C236.067985 38.781424 481.245822 -20.193842 717.827532 6.150387 M1489.507157 253.872734 C1503.681808 231.935837 1499.101520 201.748942 1484.543610 180.064491 C1469.985701 158.380039 1447.253874 143.661221 1424.320433 131.163002 C1270.368046 47.262418 1087.859300 39.329602 912.632915 33.299866 C855.381531 31.329781 798.130149 29.359697 740.878767 27.389612 C613.376328 23.002109 484.224640 18.758447 359.736569 46.666194 C253.790013 70.417303 153.781606 117.106775 62.985394 176.645300 C58.698235 179.456552 54.274811 182.459459 51.747055 186.919651 C48.538204 192.581623 48.956540 199.515501 49.467284 206.003473 C50.941539 224.730713 52.540691 243.941977 60.609034 260.906194 C68.677378 277.870411 84.760791 292.353482 103.537118 292.929988 C170.218903 294.977373 236.570960 302.822417 302.822210 310.659755 C455.794631 328.755965 608.767053 346.852176 761.739475 364.948387 C790.316798 368.329004 819.213958 364.994339 847.796854 361.661164 C928.481478 352.252148 1009.166104 342.843144 1089.850729 333.434141 C1225.119300 317.659854 1361.930171 301.522782 1489.507157 253.872734 M671.214748 899.387813 C696.251743 902.020591 721.459539 902.683850 746.634400 902.589110 C861.891377 902.155368 977.951811 885.548615 1085.443143 843.955678 C1192.934475 802.362740 1291.693477 734.923913 1361.914358 643.527049 C1317.433775 599.705007 1248.647140 595.090460 1186.223151 593.627848 C936.379833 587.774022 686.357587 590.914687 436.654005 601.116196 C382.292572 603.337104 327.433527 605.969458 274.907409 620.150602 C261.533898 623.761222 247.652114 628.566273 238.643310 639.089049 C229.634505 649.611826 227.888579 667.502117 238.462406 676.450946 C364.251263 782.908426 507.327492 882.154165 671.214748 899.387813 M623.563284 404.675079 C706.682733 399.707531 789.802183 394.739983 872.921633 389.772435 C943.919364 385.529325 1019.589419 382.319592 1081.212465 417.834125 C1140.588091 452.053445 1175.925636 516.381291 1199.889806 580.585223 C1260.173911 577.555556 1321.286549 594.086317 1371.823049 627.092591 C1431.085638 514.610585 1471.171860 392.056197 1489.836092 266.294905 C1318.097984 340.318300 1124.215517 334.810536 939.500347 364.029485 C896.369669 370.852059 853.335710 379.641012 809.682375 380.731551 C774.047490 381.621776 738.507174 377.364470 703.115410 373.114703 C494.158754 348.023638 285.202099 322.932572 76.245444 297.841507 C111.094021 417.189343 161.914694 531.862666 226.926490 637.842833 C257.042362 611.975143 295.699164 596.223843 335.317568 593.677243 C352.485826 545.664330 374.433059 497.222415 413.162772 464.056195 C469.560908 415.759594 549.443857 409.104750 623.563283 404.675078 M1174.574130 578.099524 C1161.116185 520.132566 1128.029469 464.796391 1076.725916 434.642952 C1024.840838 404.147718 961.491555 402.384115 901.313908 403.203524 C791.709083 404.695960 682.183792 412.012280 573.354292 425.111317 C526.960003 430.695470 479.042260 437.920557 439.745302 463.206163 C394.072285 492.594441 365.772079 543.112810 349.772563 595.013782 C613.025821 578.510082 876.989976 573.349888 1140.687113 579.552318 C1149.552739 579.760847 1158.719845 580.050937 1166.730811 583.854520 C1168.765002 581.278607 1171.506513 579.267033 1174.574130 578.099524 M1228.453387 49.491366 C1238.237098 52.604004 1248.283655 54.890008 1258.450912 56.317035 C1259.025576 56.397692 1259.774868 56.380162 1259.983516 55.838673 C1260.150164 55.406183 1259.702574 54.875461 1259.248167 54.966744 C1251.422011 53.042603 1243.595855 51.118462 1235.769699 49.194322 C1233.321748 48.592468 1230.520770 48.048931 1228.453386 49.491363 M1223.652138 48.509158 C1224.426575 47.111600 1221.783356 45.612058 1220.981047 46.993803 C1220.893267 48.119193 1222.476829 48.941027 1223.346552 48.221447 z"/></svg>
